www/assets/icons/view_cozy.svg

<svg width="24" height="24" viewBox="0 0 24 24" xmlns="http://www.w3.org/2000/svg" fill='currentColor'><path d="M20 4H4C2.9 4 2 4.9 2 6V18C2 19.1 2.9 20 4 20H20C21.1 20 22 19.1 22 18V6C22 4.9 21.1 4 20 4ZM11.25 16.75H7.25V12.75H11.25V16.75ZM11.25 11.25H7.25V7.25H11.25V11.25ZM16.75 16.75H12.75V12.75H16.75V16.75ZM16.75 11.25H12.75V7.25H16.75V11.25Z"/></svg>

<svg xmlns="http://www.w3.org/2000/svg" width="24" height="24" viewBox="0 0 24 24" fill='currentColor'><path d="M20 4H4c-1.1 0-2 .9-2 2v12c0 1.1.9 2 2 2h16c1.1 0 2-.9 2-2V6c0-1.1-.9-2-2-2m-8.75 12.75h-4v-4h4zm0-5.5h-4v-4h4zm5.5 5.5h-4v-4h4zm0-5.5h-4v-4h4z"/></svg>
